X:96
T: GOTT GRUESS EUCH ALTER
N: B0583
O: Europa, Mitteleuropa, Deutschland
R: Soldaten - Lied, Ballade
M: 4/4
L: 1/8
K: D
A2 | d3FAGFE | EDD2z2
F2 | E3FAGFE | F2z4
D2 | B3cdcdB | BAG2z2
GF | E3BA2C2 | D2z4

@@@ Tune index: 2314
